Numix-GalliumOS/16/status/appointment-soon.svg

<?xml version="1.0" encoding="UTF-8" standalone="no"?>
<svg
   xmlns:dc="http://purl.org/dc/elements/1.1/"
   xmlns:cc="http://creativecommons.org/ns#"
   xmlns:rdf="http://www.w3.org/1999/02/22-rdf-syntax-ns#"
   xmlns:svg="http://www.w3.org/2000/svg"
   xmlns="http://www.w3.org/2000/svg"
   xmlns:sodipodi="http://sodipodi.sourceforge.net/DTD/sodipodi-0.dtd"
   xmlns:inkscape="http://www.inkscape.org/namespaces/inkscape"
   width="16"
   height="16"
   viewBox="0 0 16 16"
   id="svg2"
   version="1.1"
   inkscape:version="0.91 r13725"
   sodipodi:docname="appointment-soon.svg">
  <metadata
     id="metadata16">
    <rdf:RDF>
      <cc:Work
         rdf:about="">
        <dc:format>image/svg+xml</dc:format>
        <dc:type
           rdf:resource="http://purl.org/dc/dcmitype/StillImage" />
      </cc:Work>
    </rdf:RDF>
  </metadata>
  <defs
     id="defs14" />
  <sodipodi:namedview
     pagecolor="#ffffff"
     bordercolor="#666666"
     borderopacity="1"
     objecttolerance="10"
     gridtolerance="10"
     guidetolerance="10"
     inkscape:pageopacity="0"
     inkscape:pageshadow="2"
     inkscape:window-width="1366"
     inkscape:window-height="704"
     id="namedview12"
     showgrid="true"
     inkscape:zoom="22.627417"
     inkscape:cx="1.6386025"
     inkscape:cy="9.6605339"
     inkscape:window-x="0"
     inkscape:window-y="27"
     inkscape:window-maximized="1"
     inkscape:current-layer="svg2">
    <inkscape:grid
       type="xygrid"
       id="grid4202" />
  </sodipodi:namedview>
  <g
     transform="matrix(.8 0 0 .8 -1.6 -1.59999)"
     id="g4">
    <path
       style="fill:#ffffff;fill-rule:evenodd"
       d="m 21.375,12.000374 a 9.375,9.3750406 0 0 1 -18.75,0 9.375,9.3750406 0 1 1 18.75,0 z"
       id="path6"
       inkscape:connector-curvature="0" />
    <path
       style="fill:#268bd2"
       d="M 11.984375,5.484375 C 11.433594,5.492188 10.992188,5.949219 11,6.5 l 0,5.5 c 0,0.234375 0.08203,0.460938 0.234375,0.640625 l 2.5,3 c 0.222656,0.300781 0.589844,0.449219 0.957031,0.394531 0.367188,-0.05859 0.671875,-0.3125 0.792969,-0.664062 0.121094,-0.351563 0.03516,-0.742188 -0.21875,-1.011719 L 13,11.640625 13,6.5 C 13.003906,6.230469 12.898438,5.96875 12.707031,5.777344 12.515625,5.585938 12.253906,5.480469 11.984375,5.484375 z"
       id="path8" />
    <path
       style="fill:#aaa"
       d="M 12,2 C 6.488281,2 2,6.488281 2,12 2,17.511719 6.488281,22 12,22 17.511719,22 22,17.511719 22,12 22,6.488281 17.511719,2 12,2 z m 0,2 c 4.429688,0 8,3.570312 8,8 0,4.429688 -3.570312,8 -8,8 C 7.570312,20 4,16.429688 4,12 4,7.570312 7.570312,4 12,4 z"
       id="path10" />
  </g>
  <path
     inkscape:connector-curvature="0"
     style="fill:#dc322f;fill-opacity:1;fill-rule:evenodd"
     d="M 8,12 C 8,14.208594 6.208593,16 4,16 1.791406,16 0,14.208594 0,12 0,9.7914059 1.791406,8 4,8 6.208593,8 8,9.7914059 8,12 Z"
     id="path4267" />
  <path
     style="fill:#ffffff;fill-opacity:0.9020004"
     id="path4271"
     d="M 3,9 5,9 5,12 3,12 3,9"
     inkscape:connector-curvature="0" />
  <path
     id="path4273"
     d="m 3,14 c 0,-0.550781 0.449219,-1 1,-1 0.550781,0 1,0.449219 1,1 0,0.550781 -0.449219,1 -1,1 -0.550781,0 -1,-0.449219 -1,-1 z"
     style="fill:#ffffff;fill-opacity:0.9020004;fill-rule:evenodd"
     inkscape:connector-curvature="0" />
</svg>

<svg xmlns="http://www.w3.org/2000/svg" viewBox="0 0 16 16">
 <g transform="matrix(.8 0 0 .8 -1.6 -1.59999)">
  <path d="m 21.375 12 a 9.375 9.375 0 0 1 -18.75 0 9.375 9.375 0 1 1 18.75 0 z" style="fill:#fff;fill-rule:evenodd"/>
  <path d="m 11.984 5.484 c -0.551 0.008 -0.992 0.465 -0.984 1.016 l 0 5.5 c 0 0.234 0.082 0.461 0.234 0.641 l 2.5 3 c 0.223 0.301 0.59 0.449 0.957 0.395 0.367 -0.059 0.672 -0.313 0.793 -0.664 0.121 -0.352 0.035 -0.742 -0.219 -1.012 l -2.266 -2.719 0 -5.141 c 0.004 -0.27 -0.102 -0.531 -0.293 -0.723 -0.191 -0.191 -0.453 -0.297 -0.723 -0.293 z" style="fill:#268bd2"/>
  <path d="m 12 2 c -5.512 0 -10 4.488 -10 10 0 5.512 4.488 10 10 10 5.512 0 10 -4.488 10 -10 0 -5.512 -4.488 -10 -10 -10 z m 0 2 c 4.43 0 8 3.57 8 8 0 4.43 -3.57 8 -8 8 c -4.43 0 -8 -3.57 -8 -8 0 -4.43 3.57 -8 8 -8 z" style="fill:#aaa"/>
 </g>
 <path d="m 8 12 c 0 2.209 -1.791 4 -4 4 -2.209 0 -4 -1.791 -4 -4 0 -2.209 1.791 -4 4 -4 2.209 0 4 1.791 4 4" style="fill:#dc322f;fill-opacity:1;fill-rule:evenodd"/>
 <path d="m 3 9 2 0 0 3 -2 0 0 -3" style="fill:#fff;fill-opacity:0.902"/>
 <path d="m 3 14 c 0 -0.551 0.449 -1 1 -1 0.551 0 1 0.449 1 1 0 0.551 -0.449 1 -1 1 -0.551 0 -1 -0.449 -1 -1 z" style="fill:#fff;fill-opacity:0.902;fill-rule:evenodd"/>
</svg>
